packages/icons/src/svg/python.svg

<svg xmlns="http://www.w3.org/2000/svg" viewBox="0 0 32 32"><path d="M15.889.00026c-7.71682,0-7.23477,3.54127-7.23477,3.54127l.00863,3.66872h7.36364V8.31177H5.73775S.8,7.71915.8,15.95855c0,8.23969,4.31006,7.94727,4.31006,7.94727H7.68222V20.08244s-.13864-4.56084,4.24124-4.56084h7.30359a3.99123,3.99123,0,0,0,4.10326-4.19672V4.26954S23.95333,0,15.88912,0Zm-4.0603,2.467a1.36372,1.36372,0,0,1,1.3248,1.402,1.32693,1.32693,0,1,1-2.64961,0A1.36372,1.36372,0,0,1,11.82866,2.46731ZM16.111,31.99974c7.71682,0,7.23476-3.54127,7.23476-3.54127l-.00862-3.66872H15.97354V23.68823H26.26225S31.2,24.28085,31.2,16.04145c0-8.23969-4.31006-7.94727-4.31006-7.94727H24.31778v3.82338s.13864,4.56084-4.24124,4.56084H12.773a3.99122,3.99122,0,0,0-4.10325,4.19672v7.05534S8.04668,32,16.11092,32Zm4.06029-2.467a1.4042,1.4042,0,1,1,1.32479-1.402A1.36371,1.36371,0,0,1,20.17134,29.53269Z"/></svg>

<svg xmlns="http://www.w3.org/2000/svg" viewBox="0 0 32 32">
	<path d="M15.889 0C8.172 0 8.654 3.542 8.654 3.542l.009 3.668h7.363v1.102H5.738S.8 7.719.8 15.959s4.31 7.947 4.31 7.947h2.572v-3.824s-.138-4.56 4.241-4.56h7.304a3.991 3.991 0 0 0 4.103-4.197V4.27S23.953 0 15.89 0zm-4.06 2.467a1.364 1.364 0 0 1 1.324 1.402 1.327 1.327 0 1 1-2.65 0 1.364 1.364 0 0 1 1.326-1.402zM16.11 32c7.717 0 7.235-3.542 7.235-3.542l-.009-3.668h-7.363v-1.102h10.288s4.938.593 4.938-7.647-4.31-7.947-4.31-7.947h-2.572v3.824s.138 4.56-4.241 4.56h-7.304a3.991 3.991 0 0 0-4.103 4.197v7.055S8.047 32 16.11 32zm4.06-2.467a1.404 1.404 0 1 1 1.325-1.402 1.364 1.364 0 0 1-1.325 1.402z"/>
</svg>
